X:1
T:Title
%%score { ( 1 4 ) | ( 2 3 ) }
L:1/8
M:6/8
K:Ab
V:1 treble nm="Grand Piano"
V:4 treble 
V:2 bass 
V:3 bass 
V:1
 z3 z2[Q:1/4=90] [A,CE] | .[A,CE]2 [CG] [CB]2 [CA] | A2 G G2 d | d2 F G2 F | %4
[M:5/8] [CE]-[CE]- [CE]3 |[M:1/8] c |[M:3/4] z2 z B z2 | d2 c c2 c | z2 z B z2 | %9
[M:5/8] [G,E]-[G,E]- [G,E]3 |[M:1/8] [G,DE] |[M:3/4] .[A,CE]2 [CG] [CB]2 [CA] | %12
 [B,DA]2 [B,DG] [B,DG]2 [EGd] | [FAd]2 [FAd] [EAc]2 [=DA_c] |[M:5/8] [EAc]-[EAc]- [EAc]3 | %15
[M:1/8] [EAc] |[M:3/4] z2 z c z2 | e2 dd c[FB] | A2 c c2 B | [CA]6 | c3 c z2 | %21
 B4[K:bass][K:treble] z2 | d4 z2 | _c4 z2 | e4 z2 | d4 z2 | d4 z2 |[M:15/16] =A3 z3/2 z3 | %28
[M:3/4] c3 c z2 | B4[K:bass][K:treble] z2 | d4 z2 | f4 z2 | e4 z2 | [De][Fd] [DFB]A GA | c6 | A6 |] %36
V:2
 z3 z2 A,, | z F[A,,A,] [A,,A,]2 [A,,A,] | [E,B,D]2 [E,B,D] [E,B,D]2 [E,G,D] | %3
 [E,G,D]2 [E,G,D] [E,B,D]2 [E,G,D] |[M:5/8] [A,,A,]-[A,,A,]- [A,,A,]3 |[M:1/8] [A,E] | %6
[M:3/4] [E,B,]2 .[E,E]2[K:treble] cE, | [A,FA]2 [A,EA] [A,EA]2 [A,EA] | %8
 [B,EG]2[K:bass] .[B,E]2 FB,, |[M:5/8] E,-E,- E,3 |[M:1/8] E, | %11
[M:3/4] z F [A,,A,] [A,,A,]2 [A,,A,] | E,2 E, E,2 E, | E,2 E, E,2 E, |[M:5/8] A,-A,- A,3 | %15
[M:1/8] A, |[M:3/4] [F,E]2 .F,2[K:treble] d[F,C] | [B,DF]2 [B,DF] [B,DF]2[K:bass] [D,D] | %18
 [E,CE]2 [E,A,E] [E,G,D]2 [E,G,D] | [A,,A,]6 | [A,,A,][A,,A,] [A,,A,] [A,,A,]3 | %21
 [B,,F,]B,, B,, B,,3 | [E,G,E][E,G,] [E,G,] [E,G,E]3 | [A,,A,][A,,A,] [A,,A,] [A,,A,]3 | %24
 [F,=A,E][F,A,] [F,A,] [F,A,E]3 | [B,,B,][B,,B,] [B,,B,] B,,3 | [E,G,D][E,G,] [E,G,] [E,G,D]3 | %27
[M:15/16] [E,C][E,C]/-[E,C]/[E,C][E,D]3/2- [E,D]3 |[M:3/4] [A,,A,][A,,A,] [A,,A,] [A,,A,]3 | %29
 [B,,F,]B,, B,, B,,3 | [E,G,E][E,G,] [E,G,] [E,G,E]3 | [A,,A,C][A,,A,] [A,,A,] [A,,A,]3 | %32
 [C,A,][C,A,] [C,A,][C,A,] [B,,G,][A,,A,] | [B,,F,][B,,B,] B,,[=E,_C=D] [E,CD][E,CD] | %34
 [E,A,E][E,A,] [E,A,][E,G,] [E,G,][E,G,] | [A,,A,][A,,E,] [A,,E,] [A,,E,]3 |] %36
V:3
 x6 | .A,,3 z3 | x6 | x6 |[M:5/8] x5 |[M:1/8] x |[M:3/4] z2 z .[E,E]3[K:treble] | x6 | %8
 z2[K:bass] z .[B,,A,]3 |[M:5/8] x5 |[M:1/8] x |[M:3/4] A,,2 z2 z2 | x6 | x6 |[M:5/8] x5 | %15
[M:1/8] x |[M:3/4] z2 z .F,3[K:treble] | x5[K:bass] x | x6 | x6 | x6 | x6 | x6 | x6 | x6 | x6 | %26
 x6 |[M:15/16] x15/2 |[M:3/4] x6 | x6 | x6 | x6 | x6 | x6 | x6 | x6 |] %36
V:4
 x6 | x6 | x6 | x6 |[M:5/8] x5 |[M:1/8] x |[M:3/4] [Ge]2 [GB] G2 [EGd] | x6 | Be G =D2 [A,DG] | %9
[M:5/8] x5 |[M:1/8] x |[M:3/4] x6 | x6 | x6 |[M:5/8] x5 |[M:1/8] x | %16
[M:3/4] [=Af]2 [EAc] [EA]2 [Ae] | x6 | x6 | x6 | EE EE- [E-d][Ec] | %21
 D[K:bass][F,D] [F,D][K:treble] [DF]3 | z E Ed cB | EE E [E=c]3 | z E Ee dc | FF F [DFB]3 | %26
 z D Dd cB |[M:15/16] _GG/-G/G[=GB]3/2- [GB]3 |[M:3/4] EE EE- [E-d][Ec] | %29
 D[K:bass][F,D] [F,D][K:treble] [DF]3 | z E Ed cd | z C C [Ce]3 | EE E[Ee] [Ed][Ec] | x6 | %34
 z E ED D[DB] | CC C C3 |] %36

